X:265
T:score65
L:1/8
Q:1/4=96
M:1/8
I:linebreak $
K:Dmin
 .a |[M:6/8] (agf) (fed) | (def) (fga | b) z(b d') z(d' | a3-) a2 .a |$ (agf) (fed | (c)de fga | %7
 c') z(b g) z(c' |[M:5/8] (f3) .f') z |] %9
